X: 490
T: Missa In duplicibus minoribus (II) Et resurrexit Credo
C: Giovanni Perluigi da Palestrina
L: 1/4
M: 4/2
N: Derived from Credo_32_e.krn
Q: "Credo"
%%staves [1 2 3 4]
V: 1 clef=treble
V: 2 clef=treble
V: 3 clef=treble-8
V: 4 clef=treble-8
K: C
[V:1] A4G2A2 | 
[V:2] A,4B,2C2 | 
[V:3] z8 | 
[V:4] z8 | 
[V:1] F4E4- | 
[V:2] D4C4 | 
[V:3] z4A4 | 
[V:4] z4z2A2 | 
[V:1] E4z4 | 
[V:2] z4z2A,2 | 
[V:3] G2A2F4 | 
[V:4] B2c2d4 | 
[V:1] z4E4 | 
[V:2] B,2C2>D2E2- | 
[V:3] E2A4c2- | 
[V:4] e4z4 | 
[V:1] G6F2 | 
[V:2] E2DCB,CD2 | 
[V:3] c2BAG2D2 | 
[V:4] z8 | 
[V:1] G2A4^G2 | 
[V:2] C2B,A,B,4 | 
[V:3] E2F2D2E2 | 
[V:4] z8 | 
[V:1] A2c4B2 | 
[V:2] A,4z2E2- | 
[V:3] F4E4 | 
[V:4] z2A4G2 | 
[V:1] c2dcBAB2- | 
[V:2] E2D2E2D2 | 
[V:3] z8 | 
[V:4] A2B2G4- | 
[V:1] BAGFE2F2 | 
[V:2] GFEDC2D2- | 
[V:3] z8 | 
[V:4] G4A4- | 
[V:1] E8 | 
[V:2] D2CB,C2E2- | 
[V:3] z2A4G2 | 
[V:4] A4z2B2 | 
[V:1] z8 | 
[V:2] E2D2E2F2- | 
[V:3] A2B2G2A2- | 
[V:4] c2d2B2c2- | 
[V:1] z4z2A2- | 
[V:2] FEE4D2 | 
[V:3] AGE2F4 | 
[V:4] cBG2A4 | 
[V:1] A2G2A2B2 | 
[V:2] E8- | 
[V:3] E2E2A2^G^F | 
[V:4] B2B2c2BA | 
[V:1] ^G2A4G2 | 
[V:2] E8 | 
[V:3] ^G8 | 
[V:4] B2c2B4 | 
[V:1] A8- | 
[V:2] E8- | 
[V:3] A8- | 
[V:4] ^c8- | 
[V:1] A8
[V:2] E8
[V:3] A8
[V:4] c8

